X:1
T:Title
%%score { ( 1 3 ) | ( 2 4 ) }
L:1/8
Q:1/4=108
M:4/4
K:Bb
V:1 treble nm="Grand Piano"
V:3 treble 
V:2 bass 
V:4 bass 
V:1
 [Fd]2 [Fd]2 [Fd]3 [Ec] | [DB]>[DF] [B,D]>[CE] [DF]4 | E2 c2 c3 B | A>G F>E D4 | %4
w: Samuel~W.~Beazley * * *||||
 [Fd]2 [Fd]2 [Fd]3 [Ec] | [DB]>[DF] [B,D]>[CE] [DF]4 | [FA]2 [Fc]2 [=EG]2 [Ec]2 |[M:3/4] F6 | %8
w: ||||
[M:1/4] F>F |[M:4/4] e4 e4 | e6 z2 | d4 d4 | d6 z2 | E2 F2 G2 A2 | B>G A6 | F2 G2 A2 c2 | %16
w: ||||||||
 [DB]>[DG] [DF]4 F>F | e4 e4 | e6 z2 | d4 d4 | d6 z2 | [G,B,E]2 [B,EG]2 [B,GB]2 [B,EG]2 | %22
w: ||||||
 [B,F]>[DB] d4 [Ff]>[Ge] | [Fd]4 [Ec]4 | [DB]6 z2 |] %25
w: |||
V:2
 [B,,B,]2 [B,,B,]2 [B,,B,]3 [B,,F,] | [B,,F,]>[B,,F,] [B,,F,]>[B,,F,] [B,,B,]4 | %2
 [F,A,C]2 [F,A,E]2 [F,A,E]3 [F,B,E] | [F,CE]>[F,A,E] [F,D]>[F,C] [B,,F,B,]4 | %4
 [B,,B,]2 [B,,B,]2 [B,,B,]3 [B,,F,] | [B,,F,]>[B,,F,] [B,,F,]>[B,,F,] [B,,B,]4 | %6
 [C,F,]2 [C,A,]2 [C,B,]2 [C,B,]2 |[M:3/4] [F,A,]6 |[M:1/4] F,>F, |[M:4/4] C4[K:treble] [G,G]2 z2 | %10
 [A,F]2 z2 z2[K:bass] .C2 | z4 [F,F]2 z2 | [B,,B,]2 B,2 z F, z [F,B,] | %13
 [F,A,C]2 [F,A,E]2 [F,B,E]2 [F,CE]2 | [F,CE]>[F,CE] [F,CE]6 | [F,A,E]2 [F,B,E]2 [F,CE]2 [F,A,E]2 | %16
 [B,,B,]>[B,,B,] [B,,B,]4 F,>F, | C2- [^F,C]2[K:treble] C2- [_A,C]2 | [A,F]2 z2 z2[K:bass] .C2 | %19
 z4 [F,F]2 z2 | [B,,B,]2 B,2 z F, z F, | E,2 E,2 E,2 E,2 | D,>[B,,F,] [B,F]4 [D,B,]>[E,B,] | %23
 [F,B,]4 [F,A,]4 | [B,,B,]6 z2 |] %25
V:3
 x8 | x8 | x8 | x8 | x8 | x8 | x8 |[M:3/4] x6 |[M:1/4] x2 |[M:4/4] A2 _A2 z2 ^F2 | z2 F2 FcAF | %11
 F2 F2 z2 F2 | F2 F2 F[DB][B,DF]D | x8 | x8 | x8 | x8 | A2 _A2 z2 ^F2 | z2 F2 FcAF | F2 F2 z2 F2 | %20
 F2 F2 F[DB][B,DF][B,D] | x8 | x8 | x8 | x8 |] %25
V:4
 x8 | x8 | x8 | x8 | x8 | x8 | x8 |[M:3/4] x6 |[M:1/4] x2 |[M:4/4] F,2 ^F,2[K:treble] C2- [_A,C]2 | %10
 C2- [F,C-]2 [A,C][K:bass][A,E][F,E]-[F,A,E] | [B,,B,]2 B,2 B,2- [D,B,]2 | z4 B,2 B,,2 | x8 | x8 | %15
 x8 | x8 | F,2 z2[K:treble] [G,G]2 z2 | C2- [F,C-]2 [A,C][K:bass][A,E][F,E]-[F,A,E] | %19
 [B,,B,]2 B,2 B,2- [D,B,]2 | z4 B,2 B,,2 | x8 | x8 | x8 | x8 |] %25

